incomeartour/img/icons/user-flag.svg

<svg width="36" height="36" viewBox="0 0 36 36" fill="none" xmlns="http://www.w3.org/2000/svg">
<g opacity="0.9">
<path d="M15.3413 20.0299C18.4675 20.0299 21.0018 17.4956 21.0018 14.3694C21.0018 11.2433 18.4675 8.70898 15.3413 8.70898C12.2151 8.70898 9.68085 11.2433 9.68085 14.3694C9.68085 17.4956 12.2151 20.0299 15.3413 20.0299Z" fill="black"/>
<path d="M20.0145 19.79C18.7592 20.8734 17.1263 21.531 15.3418 21.531C13.5573 21.531 11.9245 20.8734 10.6692 19.79C8.37804 21.3071 6.86603 23.907 6.86603 26.8609H23.8176C23.8176 23.907 22.3056 21.3071 20.0145 19.79Z" fill="black"/>
<path d="M31.7344 13.5197C32.401 13.9046 32.401 14.8669 31.7344 15.2518L26.2193 18.4359C25.5526 18.8208 24.7193 18.3397 24.7193 17.5699L24.7193 11.2016C24.7193 10.4318 25.5526 9.95065 26.2193 10.3355L31.7344 13.5197Z" fill="black"/>
<rect x="24.7256" y="14.0557" width="1.19543" height="9.2699" rx="0.597716" fill="black"/>
</g>
</svg>

<svg width="36" height="36" fill="none" xmlns="http://www.w3.org/2000/svg"><g opacity=".9" fill="#000"><path d="M15.341 20.03a5.66 5.66 0 100-11.321 5.66 5.66 0 000 11.32z"/><path d="M20.015 19.79a7.13 7.13 0 01-4.673 1.741 7.13 7.13 0 01-4.673-1.741 8.467 8.467 0 00-3.803 7.07h16.952a8.467 8.467 0 00-3.803-7.07zm11.719-6.27a1 1 0 010 1.732l-5.515 3.184a1 1 0 01-1.5-.866v-6.368a1 1 0 011.5-.867l5.515 3.185z"/><rect x="24.726" y="14.056" width="1.195" height="9.27" rx=".598"/></g></svg>
